blockchains/ethereum/assets/0x7DD9c5Cba05E151C895FDe1CF355C9A1D5DA6429/logo.svg

<svg fill="none" height="250" viewBox="0 0 250 250" width="250" xmlns="http://www.w3.org/2000/svg" xmlns:xlink="http://www.w3.org/1999/xlink"><clipPath id="a"><path d="m0 0h250v250h-250z"/></clipPath><g clip-path="url(#a)"><path d="m125 250c69.036 0 125-55.964 125-125 0-69.0356-55.964-125-125-125-69.0356 0-125 55.9644-125 125 0 69.036 55.9644 125 125 125z" fill="#001d57"/><path d="m160.148 41.3125 9.399 9.4062-17.789 18.2813c3.75 5.7031 5.765 12.4297 5.765 19.3672.064 9.128-3.466 17.9148-9.828 24.4608-4.644 4.906-10.695 8.253-17.32 9.578v15.93c6.592 1.361 12.619 4.684 17.289 9.531 6.38 6.553 9.923 15.355 9.859 24.5.062 9.143-3.481 17.942-9.859 24.492-3.109 3.221-6.835 5.782-10.956 7.529-4.121 1.748-8.552 2.647-13.028 2.643-4.478.014-8.912-.881-13.035-2.629-4.122-1.748-7.847-4.314-10.9498-7.543-6.3592-6.562-9.8955-15.354-9.8515-24.492 0-9.219 3.5-17.961 9.8281-24.469 4.6452-4.903 10.6962-8.246 17.3202-9.57v-15.937c-6.592-1.362-12.618-4.685-17.289-9.532-6.3639-6.563-9.9033-15.3579-9.8593-24.4996 0-9.2188 3.5-17.961 9.8593-24.4922 3.108-3.222 6.834-5.7842 10.955-7.5333 4.121-1.749 8.553-2.6491 13.029-2.6464 6.719 0 13.18 2.0469 18.711 5.8516l17.758-18.2266zm-36.461 109.8205c-2.712-.022-5.4.515-7.895 1.577-2.496 1.061-4.747 2.626-6.612 4.595-3.91 4.036-6.084 9.443-6.055 15.062 0 5.664 2.148 10.953 6.055 15.055 1.879 1.951 4.132 3.503 6.625 4.563 2.493 1.061 5.174 1.608 7.882 1.609 2.711.02 5.398-.517 7.892-1.579 2.495-1.061 4.744-2.625 6.608-4.593 3.908-4.034 6.082-9.438 6.055-15.055 0-5.664-2.148-10.953-6.078-15.086-1.863-1.962-4.109-3.52-6.6-4.578-2.49-1.058-5.171-1.592-7.877-1.57zm14.477-47.578c3.922-4.04 6.104-9.456 6.078-15.0863.036-2.7861-.481-5.5517-1.52-8.137s-2.581-4.9391-4.535-6.9255c-1.878-1.9506-4.129-3.5025-6.621-4.5629-2.491-1.0605-5.171-1.6077-7.879-1.6089-2.712-.0218-5.4.515-7.895 1.5768-2.496 1.0618-4.747 2.6259-6.612 4.595-3.91 4.0363-6.084 9.4433-6.055 15.0625 0 5.6641 2.148 10.9532 6.055 15.0543 1.879 1.951 4.132 3.503 6.625 4.564 2.493 1.06 5.174 1.607 7.882 1.608 5.555 0 10.68-2.156 14.477-6.14z" fill="#fff"/></g></svg>

<svg width="250" height="250" viewBox="0 0 250 250" fill="none" xmlns="http://www.w3.org/2000/svg">
<g clip-path="url(#clip0_9_738)">
<path d="M125 250C194.036 250 250 194.036 250 125C250 55.9644 194.036 0 125 0C55.9644 0 0 55.9644 0 125C0 194.036 55.9644 250 125 250Z" fill="#001D57"/>
<path d="M160.148 41.3125L169.547 50.7187L151.758 69C155.508 74.7031 157.523 81.4297 157.523 88.3672C157.587 97.4952 154.057 106.282 147.695 112.828C143.051 117.734 137 121.081 130.375 122.406V138.336C136.967 139.697 142.994 143.02 147.664 147.867C154.044 154.42 157.587 163.222 157.523 172.367C157.585 181.51 154.042 190.309 147.664 196.859C144.555 200.08 140.829 202.641 136.708 204.388C132.587 206.136 128.156 207.035 123.68 207.031C119.202 207.045 114.768 206.15 110.645 204.402C106.523 202.654 102.798 200.088 99.6952 196.859C93.336 190.297 89.7997 181.505 89.8437 172.367C89.8437 163.148 93.3437 154.406 99.6718 147.898C104.317 142.995 110.368 139.652 116.992 138.328V122.391C110.4 121.029 104.374 117.706 99.703 112.859C93.3391 106.296 89.7997 97.5011 89.8437 88.3594C89.8437 79.1406 93.3437 70.3984 99.703 63.8672C102.811 60.6452 106.537 58.083 110.658 56.3339C114.779 54.5849 119.211 53.6848 123.687 53.6875C130.406 53.6875 136.867 55.7344 142.398 59.5391L160.156 41.3125H160.148ZM123.687 151.133C120.975 151.111 118.287 151.648 115.792 152.71C113.296 153.771 111.045 155.336 109.18 157.305C105.27 161.341 103.096 166.748 103.125 172.367C103.125 178.031 105.273 183.32 109.18 187.422C111.059 189.373 113.312 190.925 115.805 191.985C118.298 193.046 120.979 193.593 123.687 193.594C126.398 193.614 129.085 193.077 131.579 192.015C134.074 190.954 136.323 189.39 138.187 187.422C142.095 183.388 144.269 177.984 144.242 172.367C144.242 166.703 142.094 161.414 138.164 157.281C136.301 155.319 134.055 153.761 131.564 152.703C129.074 151.645 126.393 151.111 123.687 151.133V151.133ZM138.164 103.555C142.086 99.515 144.268 94.099 144.242 88.4687C144.278 85.6826 143.761 82.917 142.722 80.3317C141.683 77.7464 140.141 75.3926 138.187 73.4062C136.309 71.4556 134.058 69.9037 131.566 68.8433C129.075 67.7828 126.395 67.2356 123.687 67.2344C120.975 67.2126 118.287 67.7494 115.792 68.8112C113.296 69.873 111.045 71.4371 109.18 73.4062C105.27 77.4425 103.096 82.8495 103.125 88.4687C103.125 94.1328 105.273 99.4219 109.18 103.523C111.059 105.474 113.312 107.026 115.805 108.087C118.298 109.147 120.979 109.694 123.687 109.695C129.242 109.695 134.367 107.539 138.164 103.555V103.555Z" fill="white"/>
</g>
<defs>
<clipPath id="clip0_9_738">
<rect width="250" height="250" fill="white"/>
</clipPath>
</defs>
</svg>
